assets/Hundred points/Flat/hundred_points_flat.svg

<svg width="32" height="32" viewBox="0 0 32 32" fill="none" xmlns="http://www.w3.org/2000/svg">
<path fill-rule="evenodd" clip-rule="evenodd" d="M21.0742 18.8533C20.0598 17.7972 19.8957 16.1082 20.0504 14.696C20.1092 14.1729 20.1727 13.6466 20.2362 13.1202C20.2997 12.5939 20.3632 12.0675 20.422 11.5445C20.6104 9.98965 21.0405 8.32854 21.9463 7.06155C22.7471 5.93593 23.9846 5.22016 25.3082 5.04555C26.5816 4.87754 27.9911 5.15909 28.8951 6.14481C29.8794 7.20494 30.1487 8.83751 29.9276 10.2904C29.8896 10.6029 29.8507 10.9164 29.8118 11.2303C29.7203 11.9686 29.6285 12.7092 29.546 13.4432C29.4015 15.0241 28.9049 16.6409 28.0229 17.9366C27.2348 19.0818 25.9846 19.778 24.6611 19.9526C23.3889 20.1311 22.0057 19.8142 21.0742 18.8533ZM24.0159 12.819C23.9266 13.5566 23.8373 14.2945 23.759 15.0354C23.6713 15.9076 23.9639 16.3046 24.5956 16.2213C25.2374 16.1366 25.5764 15.6563 25.6642 14.7841C25.7445 13.9766 25.8431 13.1721 25.9416 12.3675C26.0401 11.5629 26.1386 10.7584 26.219 9.95095C26.3067 9.07876 26.0141 8.68175 25.3724 8.76641C24.7407 8.84975 24.4016 9.3301 24.3138 10.2023C24.2268 11.0769 24.1214 11.9477 24.0159 12.819ZM9.55038 16.696C9.39567 18.1082 9.55977 19.7972 10.5742 20.8533C11.5057 21.8142 12.8889 22.1311 14.1611 21.9526C15.4846 21.778 16.7348 21.0818 17.5229 19.9366C18.4049 18.6409 18.9015 17.0241 19.046 15.4432C19.1285 14.7093 19.2203 13.9688 19.3118 13.2305L19.3118 13.2303L19.3119 13.2297C19.3507 12.916 19.3896 12.6027 19.4276 12.2904C19.6487 10.8375 19.3794 9.20494 18.3951 8.14481C17.4911 7.15909 16.0816 6.87754 14.8082 7.04555C13.4846 7.22016 12.2471 7.93593 11.4463 9.06155C10.5405 10.3285 10.1104 11.9896 9.922 13.5445C9.8632 14.0675 9.79969 14.5939 9.73619 15.1202C9.67269 15.6466 9.60918 16.1729 9.55038 16.696ZM13.5159 14.819L13.5159 14.819C13.6214 13.9477 13.7268 13.0769 13.8138 12.2023C13.9016 11.3301 14.2407 10.8497 14.8724 10.7664C15.5141 10.6817 15.8067 11.0788 15.719 11.951C15.6386 12.7584 15.5401 13.5629 15.4416 14.3675L15.4416 14.3675C15.3431 15.1721 15.2445 15.9766 15.1642 16.7841C15.0764 17.6563 14.7374 18.1366 14.0956 18.2213C13.4639 18.3046 13.1713 17.9076 13.259 17.0354C13.3373 16.2945 13.4266 15.5566 13.5159 14.819ZM6.70587 24.5074L8.5 11.5C8.5 11.5 9 9 7 9C5.73594 9 3.34821 11.8731 1.99724 13.643C1.44398 14.3679 1.66324 15.398 2.44514 15.8671C3.06509 16.2391 3.85864 16.1414 4.36984 15.6302L4.50001 15.5L3.2819 24.0267C3.13312 25.0682 3.94126 26 4.99331 26C5.85681 26 6.58789 25.3628 6.70587 24.5074ZM27.9769 21.2863C28.0949 21.8258 27.7532 22.3588 27.2137 22.4769L11.2137 25.9769C10.6742 26.0949 10.1411 25.7532 10.0231 25.2137C9.90508 24.6741 10.2468 24.1411 10.7863 24.0231L26.7863 20.5231C27.3258 20.405 27.8589 20.7467 27.9769 21.2863ZM25.4754 25.2797C25.5971 25.8184 25.259 26.3538 24.7203 26.4754L9.22026 29.9754C8.68154 30.0971 8.14621 29.759 8.02456 29.2202C7.90292 28.6815 8.24102 28.1462 8.77974 28.0245L24.2797 24.5245C24.8185 24.4029 25.3538 24.741 25.4754 25.2797Z" fill="#F8312F"/>
</svg>

<svg xmlns="http://www.w3.org/2000/svg" width="32" height="32" fill="none"><path fill="#F8312F" fill-rule="evenodd" d="M21.074 18.853c-1.014-1.056-1.178-2.745-1.024-4.157.06-.523.123-1.05.186-1.576a196 196 0 0 0 .186-1.575c.188-1.555.619-3.216 1.524-4.483a4.926 4.926 0 0 1 3.362-2.016c1.274-.168 2.683.113 3.587 1.099.984 1.06 1.254 2.693 1.033 4.145l-.116.94c-.092.739-.184 1.48-.266 2.213-.145 1.581-.641 3.198-1.523 4.494-.788 1.145-2.038 1.841-3.362 2.016-1.272.178-2.655-.139-3.587-1.1Zm2.942-6.034c-.09.738-.179 1.475-.257 2.216-.088.873.205 1.27.837 1.186.641-.084.98-.565 1.068-1.437.08-.807.18-1.612.278-2.417.098-.804.197-1.609.277-2.416.088-.872-.205-1.27-.847-1.185-.631.084-.97.564-1.058 1.436-.087.875-.193 1.746-.298 2.617ZM9.55 16.696c-.154 1.412.01 3.101 1.024 4.157.932.961 2.315 1.278 3.587 1.1 1.324-.175 2.574-.871 3.362-2.016.882-1.296 1.378-2.913 1.523-4.494.082-.734.174-1.474.266-2.213l.116-.94c.22-1.452-.049-3.085-1.033-4.145-.904-.986-2.313-1.267-3.587-1.1a4.926 4.926 0 0 0-3.362 2.017c-.905 1.267-1.336 2.928-1.524 4.482-.059.524-.122 1.05-.186 1.576-.063.527-.127 1.053-.186 1.576Zm3.966-1.877c.105-.871.21-1.742.298-2.617.088-.872.427-1.352 1.058-1.436.642-.084.935.313.847 1.185-.08.807-.179 1.612-.277 2.416-.099.805-.197 1.61-.278 2.417-.088.872-.427 1.353-1.068 1.437-.632.084-.925-.313-.837-1.186.078-.74.168-1.478.257-2.216Zm-6.81 9.688L8.5 11.5S9 9 7 9c-1.264 0-3.652 2.873-5.003 4.643-.553.725-.334 1.755.448 2.224.62.372 1.414.274 1.925-.237l.13-.13-1.218 8.527a1.729 1.729 0 1 0 3.424.48Zm21.27-3.22a1 1 0 0 1-.762 1.19l-16 3.5a1 1 0 0 1-.428-1.954l16-3.5a1 1 0 0 1 1.19.763Zm-2.5 3.993a1 1 0 0 1-.756 1.195l-15.5 3.5a1 1 0 1 1-.44-1.95l15.5-3.5a1 1 0 0 1 1.195.755Z" clip-rule="evenodd"/></svg>
